src/ios-tablet-landscape.svg

<svg xmlns="http://www.w3.org/2000/svg" viewBox="0 0 512 512" xml:space="preserve"><path d="M32 110v292c0 7.8 6.1 14 14 14h420c7.9 0 14-6.2 14-14V110c0-7.8-6.1-14-14-14H46c-7.9 0-14 6.3-14 14zm16.7 146.4c0-3.9 3.1-7 7-7s7 3.1 7 7-3.1 7-7 7c-3.8 0-7-3.2-7-7zM470 256c0 7.7-6.5 14-14.1 14-7.5 0-14-6.2-14-14 0-7.7 6.4-14.1 14-14.1 7.6.1 14.1 6.4 14.1 14.1zm-38-144v288H80V112h352z"/></svg>

<?xml version="1.0" encoding="utf-8"?>
<!-- Generator: Adobe Illustrator 18.1.1, SVG Export Plug-In . SVG Version: 6.00 Build 0)  -->
<svg version="1.1" id="Layer_1" xmlns="http://www.w3.org/2000/svg" xmlns:xlink="http://www.w3.org/1999/xlink" x="0px" y="0px"
	 viewBox="0 0 512 512" enable-background="new 0 0 512 512" xml:space="preserve">
<g id="Dark">
	<g id="iPad_1_">
		<path id="iPad_Air_2_1_" d="M32,110V402c0,7.8,6.1,14,14,14H466c7.9,0,14-6.2,14-14V110c0-7.8-6.1-14-14-14H46
			C38.1,96,32,102.3,32,110z M48.7,256.4c0-3.9,3.1-7,7-7c3.9,0,7,3.1,7,7c0,3.9-3.1,7-7,7C51.9,263.4,48.7,260.2,48.7,256.4z
			 M470,256c0,7.7-6.5,14-14.1,14c-7.5,0-14-6.2-14-14c0-7.7,6.4-14.1,14-14.1C463.5,242,470,248.3,470,256z M432,112v288H80V112
			H432z"/>
	</g>
</g>
</svg>
